X:1
T:[ID 1-28a]
T:[ID 1-28a]
T:Bezeichnung standardisiert: Menuett Menuet 7.
T:Urheber unbekannt Erstbeleg: vor 1767 (Datum in der schriftlichen Quelle) Datum in der hier transkribierten schriftlichen Quelle: 1792
C:Urheber unbekannt
C:Erstbeleg: vor 1767 (Datum in der schriftlichen Quelle)
C:Datum in der hier transkribierten schriftlichen Quelle: 1792
L:1/8
M:3/4
K:D
V:1 treble 
V:1
 d2 d2 d2 | dfeg f2 | d2 d2 d2 | dfeg f2 | fddB B2 | eccA A2 | BdcBA^G | A6 :: AF D2 _c2 | %9
 BAGF G2 | B^G E2 d2 | cBA^G A2 | gecA d2 | gecA d2 | egfedc | d6 :| %16

